src/assets/icons/opensea.svg

<svg width="24" height="24" viewBox="0 0 24 24" fill="none" xmlns="http://www.w3.org/2000/svg" width="100%" height="100%" viewBox="0 0 24 24" fill="currentColor">
<g clip-path="url(#clip0_2234_144)">
<path d="M12.1052 0.000131983C10.5118 -0.0134674 8.93156 0.290352 7.45677 0.893869C5.98198 1.49739 4.64213 2.38852 3.51535 3.51529C2.38858 4.64206 1.49745 5.98192 0.89393 7.45671C0.290413 8.9315 -0.0134064 10.5117 0.000193018 12.1051C0.057193 18.6211 5.38069 23.9446 11.8952 24.0001C13.4887 24.0141 15.0691 23.7106 16.5441 23.1072C18.0191 22.5038 19.3591 21.6127 20.4859 20.4859C21.6128 19.359 22.5039 18.019 23.1073 16.544C23.7107 15.0691 24.0142 13.4887 24.0002 11.8951C23.9447 5.38063 18.6212 0.057132 12.1052 0.000131983ZM8.51719 5.97313C9.28519 6.94813 9.74419 8.18263 9.74419 9.52213C9.74419 10.6831 9.39919 11.7631 8.80819 12.6646H4.65019L8.51569 5.97013L8.51719 5.97313ZM21.2012 13.2826V14.1466C21.2012 14.2036 21.1712 14.2516 21.1187 14.2726C20.8367 14.3926 19.9067 14.8246 19.5197 15.3631C18.5222 16.7521 17.7587 18.9361 16.0547 18.9361H8.94469C8.33405 18.9382 7.72911 18.8188 7.16503 18.5849C6.60096 18.351 6.08901 18.0073 5.65897 17.5738C5.22893 17.1402 4.88938 16.6255 4.66006 16.0596C4.43074 15.4936 4.31623 14.8877 4.32319 14.2771C4.32319 14.2111 4.37869 14.1571 4.44469 14.1571H7.81519C7.93069 14.1571 8.02219 14.2501 8.02219 14.3641V15.0151C8.02219 15.3601 8.30269 15.6421 8.64919 15.6421H11.2052V14.1526H9.45919C10.5002 12.8357 11.0648 11.2053 11.0612 9.52663C11.0612 7.57663 10.3127 5.79913 9.08869 4.46863C9.80456 4.55231 10.5121 4.69632 11.2037 4.89913V4.48513C11.2037 4.27866 11.2857 4.08065 11.4317 3.93465C11.5777 3.78865 11.7757 3.70663 11.9822 3.70663C12.1887 3.70663 12.3867 3.78865 12.5327 3.93465C12.6787 4.08065 12.7607 4.27866 12.7607 4.48513V5.48263C15.1457 6.59713 16.7087 8.44513 16.7087 10.5346C16.7087 11.7616 16.1717 12.9031 15.2462 13.8631C15.1578 13.9543 15.0519 14.0268 14.9349 14.0763C14.8179 14.1257 14.6922 14.1512 14.5652 14.1511H12.7607V15.6361H15.0257C15.5147 15.6361 16.3907 14.7106 16.8062 14.1511C16.8062 14.1511 16.8227 14.1241 16.8707 14.1106C16.9202 14.0956 21.0302 13.1521 21.0302 13.1521C21.0503 13.1466 21.0714 13.1457 21.0918 13.1497C21.1123 13.1537 21.1315 13.1623 21.1481 13.1749C21.1647 13.1876 21.1781 13.2039 21.1873 13.2226C21.1965 13.2412 21.2013 13.2618 21.2012 13.2826Z"/>
</g>
</svg>

<svg xmlns="http://www.w3.org/2000/styled.svg" width="100%" height="100%" viewBox="0 0 24 24" fill="currentColor"><g clip-path="url(#a)"><mask id="b" width="24" height="24" x="0" y="0" maskUnits="userSpaceOnUse" style="mask-type:luminance"><path d="M24 0H0v24h24V0Z"/></mask><g mask="url(#b)"><mask id="c" width="24" height="24" x="0" y="0" maskUnits="userSpaceOnUse" style="mask-type:luminance"><path d="M24 0H0v24h24V0Z"/></mask><g mask="url(#c)"><path d="M12.105 0C5.395-.055-.055 5.394 0 12.105c.057 6.516 5.38 11.84 11.895 11.894 6.71.058 12.162-5.394 12.104-12.104C23.945 5.38 18.621.057 12.105 0ZM8.517 5.973a5.724 5.724 0 0 1 1.227 3.55c0 1.16-.344 2.24-.936 3.141h-4.16l3.868-6.692Zm12.684 7.31v.864c0 .057-.03.105-.082.126-.282.12-1.212.552-1.6 1.09-.998 1.39-1.76 3.573-3.464 3.573h-7.11a4.607 4.607 0 0 1-4.622-4.66c0-.065.056-.12.122-.12h3.37c.116 0 .207.094.207.208v.65c0 .346.28.627.627.627h2.556v-1.488H9.459a7.435 7.435 0 0 0 1.602-4.626c0-1.95-.748-3.728-1.972-5.058.74.087 1.449.234 2.116.43v-.414a.777.777 0 1 1 1.555 0v.998c2.386 1.114 3.948 2.962 3.948 5.052 0 1.227-.536 2.368-1.462 3.328a.948.948 0 0 1-.681.288H12.76v1.485h2.265c.488 0 1.364-.926 1.78-1.484 0 0 .017-.028.065-.042.048-.014 4.158-.958 4.158-.958a.136.136 0 0 1 .172.13v.001Z"/></g></g></g><defs><clipPath id="a"><path d="M0 0h24v24H0z"/></clipPath></defs></svg>
